src/assets/duotone/Dribbble.svg

<svg width="24" height="24" viewBox="0 0 24 24"  xmlns="http://www.w3.org/2000/svg">
<path fill-rule="evenodd" clip-rule="evenodd" d="M15.8802 20.9208C15.9102 21.0808 15.8202 21.2508 15.6702 21.3108C14.5302 21.7608 13.3002 22.0008 12.0102 22.0008C9.81022 22.0008 7.76022 21.2908 6.11022 20.0708C5.97022 19.9708 5.93022 19.7708 6.02022 19.6208C6.57022 18.6408 8.72022 15.4908 13.4702 13.7308C13.6502 13.6608 13.8502 13.7508 13.9102 13.9308C15.1102 17.1208 15.6702 19.8208 15.8802 20.9208Z" />
<path fill-rule="evenodd" clip-rule="evenodd" d="M21.8201 13.89C21.3601 16.35 19.9801 18.49 18.0501 19.95C17.8401 20.11 17.5401 19.99 17.4901 19.74C17.2801 18.66 16.7701 16.33 15.7901 13.56C15.7201 13.35 15.8601 13.12 16.0801 13.09C18.5701 12.79 20.7501 13.27 21.5701 13.49C21.7401 13.55 21.8501 13.72 21.8201 13.89Z" />
<path opacity="0.4" fill-rule="evenodd" clip-rule="evenodd" d="M21.5902 11.8206C20.5702 11.6406 17.9702 11.2606 15.3102 11.5506C15.1502 11.5706 15.0102 11.4806 14.9402 11.3306C14.9002 11.2406 14.8702 11.1506 14.8302 11.0606C14.6702 10.6906 14.5002 10.3106 14.3302 9.94063C14.2402 9.76063 14.3302 9.54063 14.5102 9.46063C17.3102 8.25063 18.8702 6.69063 19.4802 5.99063C19.6302 5.82063 19.8902 5.83063 20.0302 6.01063C21.1802 7.54063 21.8902 9.41063 22.0002 11.4306C22.0102 11.6806 21.8102 11.8606 21.5902 11.8206Z" />
<path fill-rule="evenodd" clip-rule="evenodd" d="M18.4402 4.79C17.9202 5.42 16.4602 6.92 13.6902 8.02C13.5302 8.09 13.3402 8.02 13.2502 7.86C11.9702 5.54 10.6102 3.59 9.98016 2.71C9.83016 2.49 9.95016 2.2 10.2102 2.15C10.7902 2.05 11.3902 2 12.0102 2C14.4302 2 16.6602 2.86 18.3902 4.3C18.5402 4.42 18.5602 4.64 18.4402 4.79Z" />
<path fill-rule="evenodd" clip-rule="evenodd" d="M11.0198 8.83943C7.22976 9.78943 3.87976 9.91943 2.65976 9.93943C2.42976 9.93943 2.25976 9.71943 2.31976 9.49943C3.03976 6.69943 4.95976 4.35943 7.48976 3.06943C7.63976 2.98943 7.82976 3.03943 7.92976 3.17943C8.44976 3.89943 9.85976 5.92943 11.2398 8.31943C11.3498 8.51943 11.2498 8.77943 11.0198 8.83943Z" />
<path opacity="0.4" fill-rule="evenodd" clip-rule="evenodd" d="M12.92 11.6008C13.01 11.7908 12.9 12.0208 12.7 12.0908C8.27 13.5208 5.62 17.0708 4.82 18.2908C4.69 18.4908 4.41 18.5008 4.26 18.3208C2.85 16.6008 2 14.6308 2 12.2308V12.0508C2 11.8508 2.16 11.6908 2.36 11.7008C3.62 11.7508 7.73 11.5808 12 10.3508C12.16 10.3008 12.34 10.3808 12.41 10.5308C12.59 10.8908 12.76 11.2408 12.92 11.6008Z" />
</svg>

<?xml version="1.0" encoding="UTF-8"?>
<svg width="24" height="24" viewBox="0 0 24 24" xmlns="http://www.w3.org/2000/svg">
 <path d="m15.88 20.921c0.03 0.16-0.06 0.33-0.21 0.39-1.14 0.45-2.37 0.69-3.66 0.69-2.2 0-4.25-0.71-5.9-1.93-0.14-0.1-0.18-0.3-0.09-0.45 0.55-0.98 2.7-4.13 7.45-5.89 0.18-0.07 0.38 0.02 0.44 0.2 1.2 3.19 1.76 5.89 1.97 6.99z" clip-rule="evenodd" fill-rule="evenodd"/>
 <path d="m21.82 13.89c-0.46 2.46-1.84 4.6-3.77 6.06-0.21 0.16-0.51 0.04-0.56-0.21-0.21-1.08-0.72-3.41-1.7-6.18-0.07-0.21 0.07-0.44 0.29-0.47 2.49-0.3 4.67 0.18 5.49 0.4 0.17 0.06 0.28 0.23 0.25 0.4z" clip-rule="evenodd" fill-rule="evenodd"/>
 <path d="m21.59 11.821c-1.02-0.18-3.62-0.56-6.28-0.27-0.16 0.02-0.3-0.07-0.37-0.22-0.04-0.09-0.07-0.18-0.11-0.27-0.16-0.37-0.33-0.75-0.5-1.12-0.09-0.18 0-0.4 0.18-0.48 2.8-1.21 4.36-2.77 4.97-3.47 0.15-0.17 0.41-0.16 0.55 0.02 1.15 1.53 1.86 3.4 1.97 5.42 0.01 0.25-0.19 0.43-0.41 0.39z" clip-rule="evenodd" fill-rule="evenodd" opacity=".4"/>
 <path d="m18.44 4.79c-0.52 0.63-1.98 2.13-4.75 3.23-0.16 0.07-0.35 0-0.44-0.16-1.28-2.32-2.64-4.27-3.27-5.15-0.15-0.22-0.03-0.51 0.23004-0.56 0.58-0.1 1.18-0.15 1.8-0.15 2.42 0 4.65 0.86 6.38 2.3 0.15 0.12 0.17 0.34 0.05 0.49z" clip-rule="evenodd" fill-rule="evenodd"/>
 <path d="m11.02 8.8394c-3.79 0.95-7.14 1.08-8.36 1.1-0.23 0-0.4-0.22-0.34-0.44 0.72-2.8 2.64-5.14 5.17-6.43 0.15-0.08 0.34-0.03 0.44 0.11 0.52 0.72 1.93 2.75 3.31 5.14 0.11 0.2 0.01 0.46-0.22 0.52z" clip-rule="evenodd" fill-rule="evenodd"/>
 <path d="m12.92 11.601c0.09 0.19-0.02 0.42-0.22 0.49-4.43 1.43-7.08 4.98-7.88 6.2-0.13 0.2-0.41 0.21-0.56 0.03-1.41-1.72-2.26-3.69-2.26-6.09v-0.18c0-0.2 0.16-0.36 0.36-0.35 1.26 0.05 5.37-0.12 9.64-1.35 0.16-0.05 0.34 0.03 0.41 0.18 0.18 0.36 0.35 0.71 0.51 1.07z" clip-rule="evenodd" fill-rule="evenodd" opacity=".4"/>
</svg>
